static/img/kroki/875f1c176417eac62a6b9a7abb98e9f6.svg

<?xml version="1.0" encoding="us-ascii" standalone="no"?><svg xmlns="http://www.w3.org/2000/svg" xmlns:xlink="http://www.w3.org/1999/xlink" contentStyleType="text/css" height="919px" preserveAspectRatio="none" style="width:545px;height:919px;" version="1.1" viewBox="0 0 545 919" width="545px" zoomAndPan="magnify"><defs/><g><!--class azure_network_virtual_appliance_sku--><g id="elem_azure_network_virtual_appliance_sku"><rect codeLine="22" fill="#3D176E" height="152.9766" id="azure_network_virtual_appliance_sku" rx="2.5" ry="2.5" style="stroke:#000D19;stroke-width:0.5;" width="531" x="7" y="599.55"/><ellipse cx="105.75" cy="619.4445" fill="#ADD1B2" rx="11" ry="11" style="stroke:#181818;stroke-width:1.0;"/><path d="M108.7188,625.0852 Q108.1406,625.382 107.5,625.5227 Q106.8594,625.6789 106.1563,625.6789 Q103.6563,625.6789 102.3281,624.0383 Q101.0156,622.382 101.0156,619.257 Q101.0156,616.132 102.3281,614.4758 Q103.6563,612.8195 106.1563,612.8195 Q106.8594,612.8195 107.5,612.9758 Q108.1563,613.132 108.7188,613.4289 L108.7188,616.1477 Q108.0938,615.5695 107.5,615.3039 Q106.9063,615.0227 106.2813,615.0227 Q104.9375,615.0227 104.25,616.1008 Q103.5625,617.1633 103.5625,619.257 Q103.5625,621.3508 104.25,622.4289 Q104.9375,623.4914 106.2813,623.4914 Q106.9063,623.4914 107.5,623.2258 Q108.0938,622.9445 108.7188,622.3664 L108.7188,625.0852 Z " fill="#000000"/><text fill="#D9B8FF" font-family="Helvetica" font-size="17" lengthAdjust="spacing" textLength="315" x="131.25" y="625.3298">azure_network_virtual_appliance_sku</text><line style="stroke:#000D19;stroke-width:0.5;" x1="8" x2="537" y1="639.3391" y2="639.3391"/><text fill="#D9B8FF" font-family="sans-serif" font-size="14" font-weight="bold" lengthAdjust="spacing" textLength="162" x="18" y="661.3342">available_scale_units</text><text fill="#D9B8FF" font-family="sans-serif" font-size="14" lengthAdjust="spacing" textLength="347" x="180" y="661.3342">: azure_network_virtual_appliance_sku_instances[]</text><text fill="#D9B8FF" font-family="sans-serif" font-size="14" font-weight="bold" lengthAdjust="spacing" textLength="143" x="18" y="687.6311">available_versions</text><text fill="#D9B8FF" font-family="sans-serif" font-size="14" lengthAdjust="spacing" textLength="58" x="161" y="687.6311">: string[]</text><text fill="#D9B8FF" font-family="sans-serif" font-size="14" font-weight="bold" lengthAdjust="spacing" textLength="35" x="18" y="713.9279">etag</text><text fill="#D9B8FF" font-family="sans-serif" font-size="14" lengthAdjust="spacing" textLength="48" x="53" y="713.9279">: string</text><text fill="#D9B8FF" font-family="sans-serif" font-size="14" font-weight="bold" lengthAdjust="spacing" textLength="56" x="18" y="740.2248">vendor</text><text fill="#D9B8FF" font-family="sans-serif" font-size="14" lengthAdjust="spacing" textLength="48" x="74" y="740.2248">: string</text></g><!--class azure_network_virtual_appliance_sku_instances--><g id="elem_azure_network_virtual_appliance_sku_instances"><rect codeLine="28" fill="#3D176E" height="100.3828" id="azure_network_virtual_appliance_sku_instances" rx="2.5" ry="2.5" style="stroke:#000D19;stroke-width:0.5;" width="444" x="50.5" y="812.53"/><ellipse cx="65.5" cy="832.4245" fill="#ADD1B2" rx="11" ry="11" style="stroke:#181818;stroke-width:1.0;"/><path d="M68.4688,838.0652 Q67.8906,838.362 67.25,838.5027 Q66.6094,838.6589 65.9063,838.6589 Q63.4063,838.6589 62.0781,837.0183 Q60.7656,835.362 60.7656,832.237 Q60.7656,829.112 62.0781,827.4558 Q63.4063,825.7995 65.9063,825.7995 Q66.6094,825.7995 67.25,825.9558 Q67.9063,826.112 68.4688,826.4089 L68.4688,829.1277 Q67.8438,828.5495 67.25,828.2839 Q66.6563,828.0027 66.0313,828.0027 Q64.6875,828.0027 64,829.0808 Q63.3125,830.1433 63.3125,832.237 Q63.3125,834.3308 64,835.4089 Q64.6875,836.4714 66.0313,836.4714 Q66.6563,836.4714 67.25,836.2058 Q67.8438,835.9245 68.4688,835.3464 L68.4688,838.0652 Z " fill="#000000"/><text fill="#D9B8FF" font-family="Helvetica" font-size="17" lengthAdjust="spacing" textLength="402" x="84.5" y="838.3098">azure_network_virtual_appliance_sku_instances</text><line style="stroke:#000D19;stroke-width:0.5;" x1="51.5" x2="493.5" y1="852.3191" y2="852.3191"/><text fill="#D9B8FF" font-family="sans-serif" font-size="14" font-weight="bold" lengthAdjust="spacing" textLength="119" x="61.5" y="874.3142">instance_count</text><text fill="#D9B8FF" font-family="sans-serif" font-size="14" lengthAdjust="spacing" textLength="44" x="180.5" y="874.3142">: int64</text><text fill="#D9B8FF" font-family="sans-serif" font-size="14" font-weight="bold" lengthAdjust="spacing" textLength="78" x="61.5" y="900.6111">scale_unit</text><text fill="#D9B8FF" font-family="sans-serif" font-size="14" lengthAdjust="spacing" textLength="48" x="139.5" y="900.6111">: string</text></g><!--class azure_resource--><g id="elem_azure_resource"><rect codeLine="32" fill="#3D176E" height="39.7891" id="azure_resource" rx="2.5" ry="2.5" style="stroke:#000D19;stroke-width:0.5;" width="168" x="188.5" y="438.76"/><ellipse cx="203.5" cy="458.6545" fill="#ADD1B2" rx="11" ry="11" style="stroke:#181818;stroke-width:1.0;"/><path d="M206.4688,464.2952 Q205.8906,464.592 205.25,464.7327 Q204.6094,464.8889 203.9063,464.8889 Q201.4063,464.8889 200.0781,463.2483 Q198.7656,461.592 198.7656,458.467 Q198.7656,455.342 200.0781,453.6858 Q201.4063,452.0295 203.9063,452.0295 Q204.6094,452.0295 205.25,452.1858 Q205.9063,452.342 206.4688,452.6389 L206.4688,455.3577 Q205.8438,454.7795 205.25,454.5139 Q204.6563,454.2327 204.0313,454.2327 Q202.6875,454.2327 202,455.3108 Q201.3125,456.3733 201.3125,458.467 Q201.3125,460.5608 202,461.6389 Q202.6875,462.7014 204.0313,462.7014 Q204.6563,462.7014 205.25,462.4358 Q205.8438,462.1545 206.4688,461.5764 L206.4688,464.2952 Z " fill="#000000"/><text fill="#D9B8FF" font-family="Helvetica" font-size="17" lengthAdjust="spacing" textLength="126" x="222.5" y="464.5398">azure_resource</text></g><!--class resource--><g id="elem_resource"><rect codeLine="34" fill="#3D176E" height="310.7578" id="resource" rx="2.5" ry="2.5" style="stroke:#000D19;stroke-width:0.5;" width="227" x="159" y="7"/><ellipse cx="227.75" cy="26.8945" fill="#ADD1B2" rx="11" ry="11" style="stroke:#181818;stroke-width:1.0;"/><path d="M230.7188,32.5352 Q230.1406,32.832 229.5,32.9727 Q228.8594,33.1289 228.1563,33.1289 Q225.6563,33.1289 224.3281,31.4883 Q223.0156,29.832 223.0156,26.707 Q223.0156,23.582 224.3281,21.9258 Q225.6563,20.2695 228.1563,20.2695 Q228.8594,20.2695 229.5,20.4258 Q230.1563,20.582 230.7188,20.8789 L230.7188,23.5977 Q230.0938,23.0195 229.5,22.7539 Q228.9063,22.4727 228.2813,22.4727 Q226.9375,22.4727 226.25,23.5508 Q225.5625,24.6133 225.5625,26.707 Q225.5625,28.8008 226.25,29.8789 Q226.9375,30.9414 228.2813,30.9414 Q228.9063,30.9414 229.5,30.6758 Q230.0938,30.3945 230.7188,29.8164 L230.7188,32.5352 Z " fill="#000000"/><text fill="#D9B8FF" font-family="Helvetica" font-size="17" lengthAdjust="spacing" textLength="71" x="253.25" y="32.7798">resource</text><line style="stroke:#000D19;stroke-width:0.5;" x1="160" x2="385" y1="46.7891" y2="46.7891"/><text fill="#D9B8FF" font-family="sans-serif" font-size="14" font-weight="bold" lengthAdjust="spacing" textLength="29" x="170" y="68.7842">age</text><text fill="#D9B8FF" font-family="sans-serif" font-size="14" lengthAdjust="spacing" textLength="66" x="199" y="68.7842">: duration</text><text fill="#D9B8FF" font-family="sans-serif" font-size="14" font-weight="bold" lengthAdjust="spacing" textLength="43" x="170" y="95.0811">atime</text><text fill="#D9B8FF" font-family="sans-serif" font-size="14" lengthAdjust="spacing" textLength="70" x="213" y="95.0811">: datetime</text><text fill="#D9B8FF" font-family="sans-serif" font-size="14" font-weight="bold" lengthAdjust="spacing" textLength="43" x="170" y="121.3779">ctime</text><text fill="#D9B8FF" font-family="sans-serif" font-size="14" lengthAdjust="spacing" textLength="70" x="213" y="121.3779">: datetime</text><text fill="#D9B8FF" font-family="sans-serif" font-size="14" font-weight="bold" lengthAdjust="spacing" textLength="14" x="170" y="147.6748">id</text><text fill="#D9B8FF" font-family="sans-serif" font-size="14" lengthAdjust="spacing" textLength="48" x="184" y="147.6748">: string</text><text fill="#D9B8FF" font-family="sans-serif" font-size="14" font-weight="bold" lengthAdjust="spacing" textLength="33" x="170" y="173.9717">kind</text><text fill="#D9B8FF" font-family="sans-serif" font-size="14" lengthAdjust="spacing" textLength="48" x="203" y="173.9717">: string</text><text fill="#D9B8FF" font-family="sans-serif" font-size="14" font-weight="bold" lengthAdjust="spacing" textLength="90" x="170" y="200.2686">last_access</text><text fill="#D9B8FF" font-family="sans-serif" font-size="14" lengthAdjust="spacing" textLength="66" x="260" y="200.2686">: duration</text><text fill="#D9B8FF" font-family="sans-serif" font-size="14" font-weight="bold" lengthAdjust="spacing" textLength="90" x="170" y="226.5654">last_update</text><text fill="#D9B8FF" font-family="sans-serif" font-size="14" lengthAdjust="spacing" textLength="66" x="260" y="226.5654">: duration</text><text fill="#D9B8FF" font-family="sans-serif" font-size="14" font-weight="bold" lengthAdjust="spacing" textLength="48" x="170" y="252.8623">mtime</text><text fill="#D9B8FF" font-family="sans-serif" font-size="14" lengthAdjust="spacing" textLength="70" x="218" y="252.8623">: datetime</text><text fill="#D9B8FF" font-family="sans-serif" font-size="14" font-weight="bold" lengthAdjust="spacing" textLength="43" x="170" y="279.1592">name</text><text fill="#D9B8FF" font-family="sans-serif" font-size="14" lengthAdjust="spacing" textLength="48" x="213" y="279.1592">: string</text><text fill="#D9B8FF" font-family="sans-serif" font-size="14" font-weight="bold" lengthAdjust="spacing" textLength="34" x="170" y="305.4561">tags</text><text fill="#D9B8FF" font-family="sans-serif" font-size="14" lengthAdjust="spacing" textLength="171" x="204" y="305.4561">: dictionary[string, string]</text></g><!--link azure_network_virtual_appliance_sku to azure_network_virtual_appliance_sku_instances--><g id="link_azure_network_virtual_appliance_sku_azure_network_virtual_appliance_sku_instances"><path codeLine="46" d="M272.5,752.95 C272.5,772.95 272.5,788.01 272.5,806.22 " fill="none" id="azure_network_virtual_appliance_sku-to-azure_network_virtual_appliance_sku_instances" style="stroke:#FFAF37;stroke-width:2.0;"/><polygon fill="#FFAF37" points="272.5,812.22,276.5,803.22,272.5,807.22,268.5,803.22,272.5,812.22" style="stroke:#FFAF37;stroke-width:2.0;"/></g><!--reverse link azure_resource to azure_network_virtual_appliance_sku--><g id="link_azure_resource_azure_network_virtual_appliance_sku"><path codeLine="47" d="M272.5,496.77 C272.5,523.64 272.5,556.12 272.5,599.15 " fill="none" id="azure_resource-backto-azure_network_virtual_appliance_sku" style="stroke:#FFAF37;stroke-width:2.0;"/><polygon fill="none" points="272.5,478.77,266.5,496.77,278.5,496.77,272.5,478.77" style="stroke:#FFAF37;stroke-width:2.0;"/></g><!--reverse link resource to azure_resource--><g id="link_resource_azure_resource"><path codeLine="48" d="M272.5,335.84 C272.5,384.13 272.5,413.37 272.5,438.68 " fill="none" id="resource-backto-azure_resource" style="stroke:#FFAF37;stroke-width:2.0;"/><polygon fill="none" points="272.5,317.84,266.5,335.84,278.5,335.84,272.5,317.84" style="stroke:#FFAF37;stroke-width:2.0;"/></g><!--SRC=[bLFHQjj047ptLnpapKHWDsaSXr183QLz2QNfMmXYVRUI3qbtOcybuxJzzzv9SInBTkAy26bcRcPd9QsqGe55oHjHOB54SYENQLC2GI7kYEnwONDBuYn98BcOzSblrl2xWdieK7p7l4RM4lgAtoijCuFEYKyTwYl8B2LR6TNQCu5ndaB37TKY1-Vkc4alAyREC6g-l4wIlh9lUdQXfhCh7CWiAQGNoMGoKTDvN_9kr9kzNnKF-Xd5jBkqUyiu67CGqQZUd38eEaCEYcxvepF-1AMqISNd3lQhdOaCqXx-i09brq6TGEwwCOwHqFAcnCMW5SwlLJ8xAFvnJ2p3vWGyLuInGLvRok9Q4rUGnr2MkGOZCNPP9VwCncEeGUUmp3qYmLyhezcDnpUd6CJQE0uFxl5fpwhs_uYsfl5n_iipQID0XdG7UQ16eonre7-dJxyBRtfidsBfDyB1KXk-klJChjVH849dAvBedRP41_BDKWndLKN0lbT0M1Sj1epXtcFo0ARLNc7_7lS1dyKnID_2zH8QfYg3Luyf3kGOQA5NOx_grb7BS0neyzXovo-Q9r_rb8yaYhvyx7MCUZkz_Hj5qIaMeuD7jk1_]--></g></svg>

<svg xmlns="http://www.w3.org/2000/svg" width="545" height="919" viewBox="0 0 545 919"><rect width="531" height="152.977" x="7" y="599.55" fill="#3D176E" rx="2.5" ry="2.5" style="stroke:#000d19;stroke-width:.5"/><circle cx="105.75" cy="619.444" r="11" fill="#ADD1B2" style="stroke:#181818;stroke-width:1"/><path d="M108.719 625.085q-.578.297-1.219.438-.64.156-1.344.156-2.5 0-3.828-1.64-1.312-1.657-1.312-4.782t1.312-4.781q1.328-1.657 3.828-1.657.703 0 1.344.157.656.156 1.219.453v2.719q-.625-.579-1.219-.844-.594-.281-1.219-.281-1.344 0-2.031 1.078-.687 1.062-.687 3.156t.687 3.172q.688 1.062 2.031 1.062.625 0 1.219-.265.594-.282 1.219-.86z"/><text x="131.25" y="625.33" fill="#D9B8FF" font-family="Helvetica" font-size="17" textLength="315">azure_network_virtual_appliance_sku</text><path d="M8 639.339h529" style="stroke:#000d19;stroke-width:.5"/><text x="18" y="661.334" fill="#D9B8FF" font-family="sans-serif" font-size="14" font-weight="bold" textLength="162">available_scale_units</text><text x="180" y="661.334" fill="#D9B8FF" font-family="sans-serif" font-size="14" textLength="347">: azure_network_virtual_appliance_sku_instances[]</text><text x="18" y="687.631" fill="#D9B8FF" font-family="sans-serif" font-size="14" font-weight="bold" textLength="143">available_versions</text><text x="161" y="687.631" fill="#D9B8FF" font-family="sans-serif" font-size="14" textLength="58">: string[]</text><text x="18" y="713.928" fill="#D9B8FF" font-family="sans-serif" font-size="14" font-weight="bold" textLength="35">etag</text><text x="53" y="713.928" fill="#D9B8FF" font-family="sans-serif" font-size="14" textLength="48">: string</text><text x="18" y="740.225" fill="#D9B8FF" font-family="sans-serif" font-size="14" font-weight="bold" textLength="56">vendor</text><text x="74" y="740.225" fill="#D9B8FF" font-family="sans-serif" font-size="14" textLength="48">: string</text><rect width="444" height="100.383" x="50.5" y="812.53" fill="#3D176E" rx="2.5" ry="2.5" style="stroke:#000d19;stroke-width:.5"/><circle cx="65.5" cy="832.424" r="11" fill="#ADD1B2" style="stroke:#181818;stroke-width:1"/><path d="M68.469 838.065q-.578.297-1.219.438-.64.156-1.344.156-2.5 0-3.828-1.64-1.312-1.657-1.312-4.782t1.312-4.781q1.328-1.657 3.828-1.657.703 0 1.344.157.656.156 1.219.453v2.719q-.625-.579-1.219-.844-.594-.281-1.219-.281-1.344 0-2.031 1.078-.687 1.062-.687 3.156t.687 3.172q.688 1.062 2.031 1.062.625 0 1.219-.265.594-.282 1.219-.86z"/><text x="84.5" y="838.31" fill="#D9B8FF" font-family="Helvetica" font-size="17" textLength="402">azure_network_virtual_appliance_sku_instances</text><path d="M51.5 852.319h442" style="stroke:#000d19;stroke-width:.5"/><text x="61.5" y="874.314" fill="#D9B8FF" font-family="sans-serif" font-size="14" font-weight="bold" textLength="119">instance_count</text><text x="180.5" y="874.314" fill="#D9B8FF" font-family="sans-serif" font-size="14" textLength="44">: int64</text><text x="61.5" y="900.611" fill="#D9B8FF" font-family="sans-serif" font-size="14" font-weight="bold" textLength="78">scale_unit</text><text x="139.5" y="900.611" fill="#D9B8FF" font-family="sans-serif" font-size="14" textLength="48">: string</text><rect width="168" height="39.789" x="188.5" y="438.76" fill="#3D176E" rx="2.5" ry="2.5" style="stroke:#000d19;stroke-width:.5"/><circle cx="203.5" cy="458.654" r="11" fill="#ADD1B2" style="stroke:#181818;stroke-width:1"/><path d="M206.469 464.295q-.578.297-1.219.438-.64.156-1.344.156-2.5 0-3.828-1.64-1.312-1.657-1.312-4.782t1.312-4.781q1.328-1.656 3.828-1.656.703 0 1.344.156.656.156 1.219.453v2.719q-.625-.579-1.219-.844-.594-.281-1.219-.281-1.344 0-2.031 1.078-.687 1.062-.687 3.156t.687 3.172q.688 1.062 2.031 1.062.625 0 1.219-.265.594-.281 1.219-.86z"/><text x="222.5" y="464.54" fill="#D9B8FF" font-family="Helvetica" font-size="17" textLength="126">azure_resource</text><rect width="227" height="310.758" x="159" y="7" fill="#3D176E" rx="2.5" ry="2.5" style="stroke:#000d19;stroke-width:.5"/><circle cx="227.75" cy="26.895" r="11" fill="#ADD1B2" style="stroke:#181818;stroke-width:1"/><path d="M230.719 32.535q-.578.297-1.219.438-.64.156-1.344.156-2.5 0-3.828-1.64-1.312-1.657-1.312-4.782t1.312-4.781q1.328-1.656 3.828-1.656.703 0 1.344.156.656.156 1.219.453v2.719q-.625-.578-1.219-.844-.594-.281-1.219-.281-1.344 0-2.031 1.078-.687 1.062-.687 3.156t.687 3.172q.688 1.062 2.031 1.062.625 0 1.219-.265.594-.281 1.219-.86z"/><text x="253.25" y="32.78" fill="#D9B8FF" font-family="Helvetica" font-size="17" textLength="71">resource</text><path d="M160 46.789h225" style="stroke:#000d19;stroke-width:.5"/><text x="170" y="68.784" fill="#D9B8FF" font-family="sans-serif" font-size="14" font-weight="bold" textLength="29">age</text><text x="199" y="68.784" fill="#D9B8FF" font-family="sans-serif" font-size="14" textLength="66">: duration</text><text x="170" y="95.081" fill="#D9B8FF" font-family="sans-serif" font-size="14" font-weight="bold" textLength="43">atime</text><text x="213" y="95.081" fill="#D9B8FF" font-family="sans-serif" font-size="14" textLength="70">: datetime</text><text x="170" y="121.378" fill="#D9B8FF" font-family="sans-serif" font-size="14" font-weight="bold" textLength="43">ctime</text><text x="213" y="121.378" fill="#D9B8FF" font-family="sans-serif" font-size="14" textLength="70">: datetime</text><text x="170" y="147.675" fill="#D9B8FF" font-family="sans-serif" font-size="14" font-weight="bold" textLength="14">id</text><text x="184" y="147.675" fill="#D9B8FF" font-family="sans-serif" font-size="14" textLength="48">: string</text><text x="170" y="173.972" fill="#D9B8FF" font-family="sans-serif" font-size="14" font-weight="bold" textLength="33">kind</text><text x="203" y="173.972" fill="#D9B8FF" font-family="sans-serif" font-size="14" textLength="48">: string</text><text x="170" y="200.269" fill="#D9B8FF" font-family="sans-serif" font-size="14" font-weight="bold" textLength="90">last_access</text><text x="260" y="200.269" fill="#D9B8FF" font-family="sans-serif" font-size="14" textLength="66">: duration</text><text x="170" y="226.565" fill="#D9B8FF" font-family="sans-serif" font-size="14" font-weight="bold" textLength="90">last_update</text><text x="260" y="226.565" fill="#D9B8FF" font-family="sans-serif" font-size="14" textLength="66">: duration</text><text x="170" y="252.862" fill="#D9B8FF" font-family="sans-serif" font-size="14" font-weight="bold" textLength="48">mtime</text><text x="218" y="252.862" fill="#D9B8FF" font-family="sans-serif" font-size="14" textLength="70">: datetime</text><text x="170" y="279.159" fill="#D9B8FF" font-family="sans-serif" font-size="14" font-weight="bold" textLength="43">name</text><text x="213" y="279.159" fill="#D9B8FF" font-family="sans-serif" font-size="14" textLength="48">: string</text><text x="170" y="305.456" fill="#D9B8FF" font-family="sans-serif" font-size="14" font-weight="bold" textLength="34">tags</text><text x="204" y="305.456" fill="#D9B8FF" font-family="sans-serif" font-size="14" textLength="171">: dictionary[string, string]</text><path fill="none" d="M272.5 752.95v53.27" style="stroke:#ffaf37;stroke-width:2"/><path fill="#FFAF37" d="m272.5 812.22 4-9-4 4-4-4z" style="stroke:#ffaf37;stroke-width:2"/><path fill="none" d="M272.5 496.77v102.38m0-120.38-6 18h12zm0-142.93v102.84m0-120.84-6 18h12z" style="stroke:#ffaf37;stroke-width:2"/></svg>
